Newaita-dark/apps/16/yast-sw_single.svg

<?xml version="1.0" encoding="UTF-8"?>
<svg xmlns="http://www.w3.org/2000/svg" xmlns:xlink="http://www.w3.org/1999/xlink" width="16px" height="16px" viewBox="0 0 16 16" version="1.1">
<defs>
<linearGradient id="linear0" gradientUnits="userSpaceOnUse" x1="254" y1="233.5" x2="254" y2="254.666672" gradientTransform="matrix(0.031253,0,0,0.031253,-0.00000190753,6.719393)">
<stop offset="0" style="stop-color:rgb(0%,0%,0%);stop-opacity:0.27451;"/>
<stop offset="1" style="stop-color:rgb(0%,0%,0%);stop-opacity:0;"/>
</linearGradient>
<radialGradient id="radial0" gradientUnits="userSpaceOnUse" cx="450.908936" cy="189.579361" fx="450.908936" fy="189.579361" r="21.166656" gradientTransform="matrix(0.0000000870852,-0.0390662,-0.0703192,-0.0000000507693,26.561465,31.797666)">
<stop offset="0" style="stop-color:rgb(0%,0%,0%);stop-opacity:0.313726;"/>
<stop offset="0.222222" style="stop-color:rgb(0%,0%,0%);stop-opacity:0.27451;"/>
<stop offset="1" style="stop-color:rgb(0%,0%,0%);stop-opacity:0;"/>
</radialGradient>
<radialGradient id="radial1" gradientUnits="userSpaceOnUse" cx="450.908936" cy="189.579361" fx="450.908936" fy="189.579361" r="21.166656" gradientTransform="matrix(-0.0000000870852,0.0390662,0.0703192,0.0000000507693,-10.60226,-3.763739)">
<stop offset="0" style="stop-color:rgb(0%,0%,0%);stop-opacity:0.313726;"/>
<stop offset="0.222222" style="stop-color:rgb(0%,0%,0%);stop-opacity:0.27451;"/>
<stop offset="1" style="stop-color:rgb(0%,0%,0%);stop-opacity:0;"/>
</radialGradient>
<radialGradient id="radial2" gradientUnits="userSpaceOnUse" cx="450.908936" cy="189.579361" fx="450.908936" fy="189.579361" r="21.166656" gradientTransform="matrix(-0.0000000870852,-0.0390662,0.0703192,-0.0000000507693,-10.60226,31.797666)">
<stop offset="0" style="stop-color:rgb(0%,0%,0%);stop-opacity:0.313726;"/>
<stop offset="0.222222" style="stop-color:rgb(0%,0%,0%);stop-opacity:0.27451;"/>
<stop offset="1" style="stop-color:rgb(0%,0%,0%);stop-opacity:0;"/>
</radialGradient>
<radialGradient id="radial3" gradientUnits="userSpaceOnUse" cx="450.908936" cy="189.579361" fx="450.908936" fy="189.579361" r="21.166656" gradientTransform="matrix(0.0000000870852,0.0390662,-0.0703192,0.0000000507693,26.561464,-3.76374)">
<stop offset="0" style="stop-color:rgb(0%,0%,0%);stop-opacity:0.313726;"/>
<stop offset="0.222222" style="stop-color:rgb(0%,0%,0%);stop-opacity:0.27451;"/>
<stop offset="1" style="stop-color:rgb(0%,0%,0%);stop-opacity:0;"/>
</radialGradient>
<linearGradient id="linear1" gradientUnits="userSpaceOnUse" x1="254" y1="233.5" x2="254" y2="-168.666672" gradientTransform="matrix(0.031253,0,0,0.031253,0,6.719392)">
<stop offset="0" style="stop-color:rgb(40.000001%,73.333335%,41.568628%);stop-opacity:1;"/>
<stop offset="1" style="stop-color:rgb(50.588238%,78.039217%,51.764709%);stop-opacity:1;"/>
</linearGradient>
<linearGradient id="linear2" gradientUnits="userSpaceOnUse" x1="254" y1="-168.666672" x2="254" y2="233.5" gradientTransform="matrix(0.0205777,0,0,0.0205777,5.162537,9.218714)">
<stop offset="0" style="stop-color:rgb(87.843138%,87.843138%,87.843138%);stop-opacity:1;"/>
<stop offset="1" style="stop-color:rgb(74.117649%,74.117649%,74.117649%);stop-opacity:1;"/>
</linearGradient>
<linearGradient id="linear3" gradientUnits="userSpaceOnUse" x1="254" y1="117.083344" x2="254" y2="-52.25" gradientTransform="matrix(0.0205777,0,0,0.0205777,5.162537,9.218714)">
<stop offset="0" style="stop-color:rgb(96.078432%,96.078432%,96.078432%);stop-opacity:1;"/>
<stop offset="1" style="stop-color:rgb(87.843138%,87.843138%,87.843138%);stop-opacity:1;"/>
</linearGradient>
<linearGradient id="linear4" gradientUnits="userSpaceOnUse" x1="253.130798" y1="-129.433121" x2="253.130798" y2="272.733551" gradientTransform="matrix(1,0,0,1,1.322907,-39.233288)">
<stop offset="0" style="stop-color:rgb(73.725492%,66.666669%,64.313728%);stop-opacity:1;"/>
<stop offset="1" style="stop-color:rgb(84.313726%,80.000001%,78.431374%);stop-opacity:1;"/>
</linearGradient>
</defs>
<g id="surface1">
<path style=" stroke:none;fill-rule:nonzero;fill:url(#linear0);" d="M 2.5625 14.015625 L 13.394531 14.015625 L 13.394531 14.679688 L 2.5625 14.679688 Z M 2.5625 14.015625 "/>
<path style=" stroke:none;fill-rule:nonzero;fill:url(#radial0);" d="M 13.394531 14.015625 L 14.71875 14.015625 L 14.71875 13.355469 L 13.394531 13.355469 Z M 13.394531 14.015625 "/>
<path style=" stroke:none;fill-rule:nonzero;fill:url(#radial1);" d="M 2.5625 14.015625 L 1.242188 14.015625 L 1.242188 14.679688 L 2.5625 14.679688 Z M 2.5625 14.015625 "/>
<path style=" stroke:none;fill-rule:nonzero;fill:url(#radial2);" d="M 2.5625 14.015625 L 1.242188 14.015625 L 1.242188 13.355469 L 2.5625 13.355469 Z M 2.5625 14.015625 "/>
<path style=" stroke:none;fill-rule:nonzero;fill:url(#radial3);" d="M 13.394531 14.015625 L 14.71875 14.015625 L 14.71875 14.679688 L 13.394531 14.679688 Z M 13.394531 14.015625 "/>
<path style=" stroke:none;fill-rule:nonzero;fill:url(#linear1);" d="M 1.820312 1.449219 L 14.058594 1.449219 C 14.332031 1.449219 14.554688 1.671875 14.554688 1.945312 L 14.554688 13.519531 C 14.554688 13.792969 14.332031 14.015625 14.058594 14.015625 L 1.820312 14.015625 C 1.546875 14.015625 1.324219 13.792969 1.324219 13.519531 L 1.324219 1.945312 C 1.324219 1.671875 1.546875 1.449219 1.820312 1.449219 Z M 1.820312 1.449219 "/>
<path style=" stroke:none;fill-rule:nonzero;fill:rgb(0%,0%,0%);fill-opacity:0.196078;" d="M 1.324219 4.429688 L 14.554688 4.429688 L 14.554688 4.589844 L 1.324219 4.589844 Z M 1.324219 4.429688 "/>
<path style=" stroke:none;fill-rule:nonzero;fill:rgb(90.196079%,90.196079%,90.196079%);fill-opacity:0.588235;" d="M 1.324219 4.589844 L 14.554688 4.589844 L 14.554688 4.757812 L 1.324219 4.757812 Z M 1.324219 4.589844 "/>
<path style=" stroke:none;fill-rule:nonzero;fill:rgb(12.941177%,12.941177%,12.941177%);fill-opacity:0.992157;" d="M 1.324219 4.550781 L 14.554688 4.550781 L 14.554688 4.632812 L 1.324219 4.632812 Z M 1.324219 4.550781 "/>
<path style=" stroke:none;fill-rule:nonzero;fill:rgb(0%,0%,0%);fill-opacity:0.235294;" d="M 1.324219 13.3125 L 1.324219 13.480469 C 1.324219 13.753906 1.542969 13.976562 1.820312 13.976562 L 14.058594 13.976562 C 14.332031 13.976562 14.554688 13.753906 14.554688 13.480469 L 14.554688 13.3125 C 14.554688 13.589844 14.332031 13.808594 14.058594 13.808594 L 1.820312 13.808594 C 1.542969 13.808594 1.324219 13.589844 1.324219 13.3125 Z M 1.324219 13.3125 "/>
<path style=" stroke:none;fill-rule:nonzero;fill:rgb(100%,100%,100%);fill-opacity:0.392157;" d="M 1.820312 1.492188 C 1.542969 1.492188 1.324219 1.710938 1.324219 1.988281 L 1.324219 2.152344 C 1.324219 1.878906 1.542969 1.65625 1.820312 1.65625 L 14.058594 1.65625 C 14.332031 1.65625 14.554688 1.878906 14.554688 2.152344 L 14.554688 1.988281 C 14.554688 1.710938 14.332031 1.492188 14.058594 1.492188 Z M 1.820312 1.492188 "/>
<path style=" stroke:none;fill-rule:nonzero;fill:rgb(12.941177%,12.941177%,12.941177%);fill-opacity:1;" d="M 1.820312 1.402344 C 1.519531 1.402344 1.277344 1.644531 1.277344 1.945312 L 1.277344 13.519531 C 1.277344 13.820312 1.519531 14.0625 1.820312 14.0625 L 14.058594 14.0625 C 14.355469 14.0625 14.601562 13.820312 14.601562 13.519531 L 14.601562 1.945312 C 14.601562 1.644531 14.355469 1.402344 14.058594 1.402344 Z M 1.820312 1.496094 L 14.058594 1.496094 C 14.308594 1.496094 14.507812 1.695312 14.507812 1.945312 L 14.507812 13.519531 C 14.507812 13.769531 14.308594 13.96875 14.058594 13.96875 L 1.820312 13.96875 C 1.570312 13.96875 1.371094 13.769531 1.371094 13.519531 L 1.371094 1.945312 C 1.371094 1.695312 1.570312 1.496094 1.820312 1.496094 Z M 1.820312 1.496094 "/>
<path style=" stroke:none;fill-rule:nonzero;fill:url(#linear2);" d="M 10.390625 5.746094 C 8.097656 5.746094 6.25 7.59375 6.25 9.886719 C 6.25 12.179688 8.097656 14.023438 10.390625 14.023438 C 12.679688 14.023438 14.527344 12.179688 14.527344 9.886719 C 14.527344 7.59375 12.679688 5.746094 10.390625 5.746094 Z M 10.390625 9.015625 C 10.871094 9.015625 11.261719 9.402344 11.261719 9.886719 C 11.261719 10.367188 10.871094 10.757812 10.390625 10.757812 C 9.90625 10.757812 9.519531 10.367188 9.519531 9.886719 C 9.519531 9.402344 9.90625 9.015625 10.390625 9.015625 Z M 10.390625 9.015625 "/>
<path style=" stroke:none;fill-rule:nonzero;fill:rgb(100%,100%,100%);fill-opacity:0.392157;" d="M 7.464844 6.960938 C 7.222656 7.207031 7.011719 7.484375 6.832031 7.796875 C 6.648438 8.109375 6.515625 8.433594 6.421875 8.765625 L 7.355469 9.015625 C 7.5 8.488281 7.777344 8.019531 8.148438 7.644531 Z M 8.320312 7.816406 C 7.980469 8.164062 7.726562 8.59375 7.59375 9.078125 L 9.582031 9.609375 C 9.597656 9.550781 9.625 9.488281 9.660156 9.429688 C 9.691406 9.371094 9.730469 9.320312 9.777344 9.273438 Z M 8.320312 7.816406 "/>
<path style=" stroke:none;fill-rule:nonzero;fill:rgb(100%,100%,100%);fill-opacity:0.392157;" d="M 11.246094 10.121094 C 11.226562 10.183594 11.199219 10.242188 11.167969 10.300781 C 11.132812 10.359375 11.09375 10.410156 11.050781 10.460938 L 12.507812 11.914062 C 12.847656 11.566406 13.097656 11.136719 13.234375 10.652344 Z M 13.46875 10.71875 C 13.324219 11.242188 13.050781 11.710938 12.679688 12.089844 L 13.363281 12.769531 C 13.601562 12.527344 13.816406 12.246094 13.996094 11.933594 C 14.175781 11.621094 14.3125 11.296875 14.402344 10.96875 Z M 13.46875 10.71875 "/>
<path style=" stroke:none;fill-rule:nonzero;fill:url(#linear3);" d="M 10.390625 8.144531 C 9.425781 8.144531 8.648438 8.921875 8.648438 9.886719 C 8.648438 10.851562 9.425781 11.628906 10.390625 11.628906 C 11.355469 11.628906 12.132812 10.851562 12.132812 9.886719 C 12.132812 8.921875 11.355469 8.144531 10.390625 8.144531 Z M 10.390625 9.015625 C 10.871094 9.015625 11.261719 9.402344 11.261719 9.886719 C 11.261719 10.367188 10.871094 10.757812 10.390625 10.757812 C 9.90625 10.757812 9.519531 10.367188 9.519531 9.886719 C 9.519531 9.402344 9.90625 9.015625 10.390625 9.015625 Z M 10.390625 9.015625 "/>
<path style=" stroke:none;fill-rule:nonzero;fill:rgb(99.215686%,99.215686%,99.215686%);fill-opacity:0.588235;" d="M 10.390625 5.746094 C 8.097656 5.746094 6.25 7.59375 6.25 9.886719 C 6.25 9.910156 6.25 9.9375 6.253906 9.964844 C 6.296875 7.710938 8.125 5.914062 10.390625 5.914062 C 12.652344 5.914062 14.480469 7.710938 14.527344 9.964844 C 14.527344 9.9375 14.527344 9.910156 14.527344 9.886719 C 14.527344 7.59375 12.679688 5.746094 10.390625 5.746094 Z M 9.535156 10.050781 C 9.523438 10.105469 9.519531 10.160156 9.519531 10.214844 C 9.519531 10.246094 9.519531 10.269531 9.523438 10.296875 C 9.523438 10.269531 9.527344 10.242188 9.535156 10.214844 C 9.609375 10.621094 9.964844 10.921875 10.390625 10.921875 C 10.816406 10.921875 11.167969 10.621094 11.246094 10.214844 C 11.25 10.242188 11.253906 10.269531 11.257812 10.296875 C 11.257812 10.269531 11.261719 10.246094 11.261719 10.214844 C 11.261719 10.160156 11.253906 10.105469 11.246094 10.050781 C 11.167969 10.453125 10.816406 10.757812 10.390625 10.757812 C 9.964844 10.757812 9.609375 10.453125 9.535156 10.050781 Z M 9.535156 10.050781 "/>
<path style=" stroke:none;fill-rule:nonzero;fill:rgb(0%,0%,0%);fill-opacity:0.235294;" d="M 10.390625 14.019531 C 8.097656 14.019531 6.25 12.175781 6.25 9.882812 C 6.25 9.855469 6.25 9.828125 6.253906 9.804688 C 6.296875 12.054688 8.125 13.855469 10.390625 13.855469 C 12.652344 13.855469 14.480469 12.054688 14.527344 9.804688 C 14.527344 9.828125 14.527344 9.855469 14.527344 9.882812 C 14.527344 12.175781 12.679688 14.019531 10.390625 14.019531 Z M 9.535156 9.882812 C 9.523438 9.828125 9.519531 9.773438 9.519531 9.71875 C 9.519531 9.6875 9.519531 9.664062 9.523438 9.636719 C 9.523438 9.664062 9.527344 9.691406 9.535156 9.71875 C 9.609375 9.3125 9.964844 9.011719 10.390625 9.011719 C 10.816406 9.011719 11.167969 9.3125 11.246094 9.71875 C 11.25 9.691406 11.253906 9.664062 11.257812 9.636719 C 11.257812 9.664062 11.261719 9.6875 11.261719 9.71875 C 11.261719 9.773438 11.253906 9.828125 11.246094 9.882812 C 11.167969 9.480469 10.816406 9.175781 10.390625 9.175781 C 9.964844 9.175781 9.609375 9.480469 9.535156 9.882812 Z M 9.535156 9.882812 "/>
<path style="fill:none;stroke-width:3;stroke-linecap:round;stroke-linejoin:miter;stroke:rgb(20%,20%,20%);stroke-opacity:1;stroke-miterlimit:4;" d="M 332.468251 -31.142558 C 259.100257 -31.142558 199.980903 27.976797 199.980903 101.344791 C 199.980903 174.712784 259.100257 233.707151 332.468251 233.707151 C 405.711257 233.707151 464.830611 174.712784 464.830611 101.344791 C 464.830611 27.976797 405.711257 -31.142558 332.468251 -31.142558 Z M 332.468251 73.472452 C 347.841783 73.472452 360.340589 85.846271 360.340589 101.344791 C 360.340589 116.718322 347.841783 129.217129 332.468251 129.217129 C 316.969731 129.217129 304.595913 116.718322 304.595913 101.344791 C 304.595913 85.846271 316.969731 73.472452 332.468251 73.472452 Z M 332.468251 73.472452 " transform="matrix(0.031253,0,0,0.031253,0,6.719392)"/>
<path style="fill:none;stroke-width:3;stroke-linecap:round;stroke-linejoin:miter;stroke:rgb(20%,20%,20%);stroke-opacity:1;stroke-miterlimit:4;" d="M 332.468251 45.600114 C 301.596199 45.600114 276.723574 70.472739 276.723574 101.344791 C 276.723574 132.216842 301.596199 157.089467 332.468251 157.089467 C 363.340303 157.089467 388.212928 132.216842 388.212928 101.344791 C 388.212928 70.472739 363.340303 45.600114 332.468251 45.600114 Z M 332.468251 73.472452 C 347.841783 73.472452 360.340589 85.846271 360.340589 101.344791 C 360.340589 116.718322 347.841783 129.217129 332.468251 129.217129 C 316.969731 129.217129 304.595913 116.718322 304.595913 101.344791 C 304.595913 85.846271 316.969731 73.472452 332.468251 73.472452 Z M 332.468251 73.472452 " transform="matrix(0.031253,0,0,0.031253,0,6.719392)"/>
<path style=" stroke:none;fill-rule:nonzero;fill:rgb(0%,0%,0%);fill-opacity:0.235294;" d="M 6.3125 1.449219 L 6.347656 5.742188 L 6.582031 5.976562 L 6.800781 5.753906 L 7.023438 5.976562 L 7.25 5.746094 L 7.476562 5.976562 L 7.703125 5.746094 L 7.933594 5.976562 L 8.160156 5.746094 L 8.386719 5.976562 L 8.613281 5.746094 L 8.839844 5.976562 L 9.070312 5.746094 L 9.296875 5.976562 L 9.53125 5.742188 L 9.53125 1.449219 Z M 6.3125 1.449219 "/>
<path style="fill-rule:nonzero;fill:url(#linear4);stroke-width:3;stroke-linecap:round;stroke-linejoin:round;stroke:rgb(12.941177%,12.941177%,12.941177%);stroke-opacity:1;stroke-miterlimit:4;" d="M 202.73064 -168.629428 L 203.730545 -38.516853 L 211.229829 -31.142558 L 218.22916 -38.141889 L 225.35348 -31.142558 L 232.602788 -38.391865 L 239.852095 -31.142558 L 247.226391 -38.391865 L 254.475699 -31.142558 L 261.725007 -38.391865 L 268.974314 -31.142558 L 276.223622 -38.391865 L 283.597918 -31.142558 L 290.847225 -38.391865 L 298.096533 -31.142558 L 305.595817 -38.516853 L 305.595817 -168.629428 Z M 202.73064 -168.629428 " transform="matrix(0.031253,0,0,0.031253,0,6.719392)"/>
<path style=" stroke:none;fill-rule:nonzero;fill:rgb(0%,0%,0%);fill-opacity:0.235294;" d="M 6.253906 10.070312 C 6.253906 10.132812 6.25 10.195312 6.25 10.257812 C 6.25 11.929688 7.234375 13.363281 8.652344 14.015625 L 10.152344 14.015625 C 8.03125 13.898438 6.347656 12.199219 6.253906 10.070312 Z M 14.523438 10.070312 C 14.429688 12.199219 12.746094 13.898438 10.625 14.015625 L 12.125 14.015625 C 13.546875 13.363281 14.527344 11.929688 14.527344 10.257812 C 14.527344 10.195312 14.527344 10.132812 14.523438 10.070312 Z M 14.523438 10.070312 "/>
</g>
</svg>

<svg xmlns="http://www.w3.org/2000/svg" width="16pt" height="16pt" viewBox="0 0 16 16"><defs><linearGradient id="a" gradientUnits="userSpaceOnUse" x1="254" y1="233.5" x2="254" y2="254.667" gradientTransform="matrix(.03125 0 0 .03125 0 6.72)"><stop offset="0" stop-opacity=".275"/><stop offset="1" stop-opacity="0"/></linearGradient><radialGradient id="b" gradientUnits="userSpaceOnUse" cx="450.909" cy="189.579" fx="450.909" fy="189.579" r="21.167" gradientTransform="matrix(0 -.03907 -.07032 0 26.561 31.798)"><stop offset="0" stop-opacity=".314"/><stop offset=".222" stop-opacity=".275"/><stop offset="1" stop-opacity="0"/></radialGradient><radialGradient id="c" gradientUnits="userSpaceOnUse" cx="450.909" cy="189.579" fx="450.909" fy="189.579" r="21.167" gradientTransform="matrix(0 .03907 .07032 0 -10.602 -3.764)"><stop offset="0" stop-opacity=".314"/><stop offset=".222" stop-opacity=".275"/><stop offset="1" stop-opacity="0"/></radialGradient><radialGradient id="d" gradientUnits="userSpaceOnUse" cx="450.909" cy="189.579" fx="450.909" fy="189.579" r="21.167" gradientTransform="matrix(0 -.03907 .07032 0 -10.602 31.798)"><stop offset="0" stop-opacity=".314"/><stop offset=".222" stop-opacity=".275"/><stop offset="1" stop-opacity="0"/></radialGradient><radialGradient id="e" gradientUnits="userSpaceOnUse" cx="450.909" cy="189.579" fx="450.909" fy="189.579" r="21.167" gradientTransform="matrix(0 .03907 -.07032 0 26.561 -3.764)"><stop offset="0" stop-opacity=".314"/><stop offset=".222" stop-opacity=".275"/><stop offset="1" stop-opacity="0"/></radialGradient><linearGradient id="f" gradientUnits="userSpaceOnUse" x1="254" y1="233.5" x2="254" y2="-168.667" gradientTransform="matrix(.03125 0 0 .03125 0 6.72)"><stop offset="0" stop-color="#66bb6a"/><stop offset="1" stop-color="#81c784"/></linearGradient><linearGradient id="g" gradientUnits="userSpaceOnUse" x1="254" y1="-168.667" x2="254" y2="233.5" gradientTransform="matrix(.02058 0 0 .02058 5.163 9.219)"><stop offset="0" stop-color="#e0e0e0"/><stop offset="1" stop-color="#bdbdbd"/></linearGradient><linearGradient id="h" gradientUnits="userSpaceOnUse" x1="254" y1="117.083" x2="254" y2="-52.25" gradientTransform="matrix(.02058 0 0 .02058 5.163 9.219)"><stop offset="0" stop-color="#f5f5f5"/><stop offset="1" stop-color="#e0e0e0"/></linearGradient><linearGradient id="i" gradientUnits="userSpaceOnUse" x1="253.131" y1="-129.433" x2="253.131" y2="272.734" gradientTransform="translate(1.323 -39.233)"><stop offset="0" stop-color="#bcaaa4"/><stop offset="1" stop-color="#d7ccc8"/></linearGradient></defs><path d="M2.563 14.016h10.832v.664H2.563zm0 0" fill="url(#a)"/><path d="M13.395 14.016h1.324v-.66h-1.324zm0 0" fill="url(#b)"/><path d="M2.563 14.016h-1.32v.664h1.32zm0 0" fill="url(#c)"/><path d="M2.563 14.016h-1.32v-.66h1.32zm0 0" fill="url(#d)"/><path d="M13.395 14.016h1.324v.664h-1.324zm0 0" fill="url(#e)"/><path d="M1.82 1.45H14.06c.273 0 .496.222.496.495V13.52a.497.497 0 0 1-.496.496H1.82a.497.497 0 0 1-.496-.496V1.945c0-.273.223-.496.496-.496zm0 0" fill="url(#f)"/><path d="M1.324 4.43h13.23v.16H1.325zm0 0" fill-opacity=".196"/><path d="M1.324 4.59h13.23v.168H1.325zm0 0" fill="#e6e6e6" fill-opacity=".588"/><path d="M1.324 4.55h13.23v.083H1.325zm0 0" fill="#212121" fill-opacity=".992"/><path d="M1.324 13.313v.167c0 .274.219.497.496.497H14.06a.497.497 0 0 0 .496-.497v-.168a.494.494 0 0 1-.496.497H1.82a.492.492 0 0 1-.496-.496zm0 0" fill-opacity=".235"/><path d="M1.82 1.492a.492.492 0 0 0-.496.496v.164c0-.273.219-.496.496-.496H14.06c.273 0 .496.223.496.496v-.164a.494.494 0 0 0-.496-.496zm0 0" fill="#fff" fill-opacity=".392"/><path d="M1.82 1.402c-.3 0-.543.243-.543.543V13.52c0 .3.243.543.543.543H14.06a.544.544 0 0 0 .543-.543V1.945c0-.3-.247-.543-.543-.543zm0 .094H14.06c.25 0 .449.2.449.45V13.52c0 .25-.2.449-.45.449H1.82c-.25 0-.449-.2-.449-.45V1.946c0-.25.2-.449.45-.449zm0 0" fill="#212121"/><path d="M10.39 5.746a4.133 4.133 0 0 0-4.14 4.14 4.13 4.13 0 0 0 4.14 4.137 4.129 4.129 0 0 0 4.137-4.136 4.132 4.132 0 0 0-4.136-4.14zm0 3.27a.872.872 0 1 1-.002 1.74.872.872 0 0 1 .003-1.74zm0 0" fill="url(#g)"/><path d="M7.465 6.96a4.092 4.092 0 0 0-.633.837 4.1 4.1 0 0 0-.41.969l.933.25a3.12 3.12 0 0 1 .793-1.371zm.855.856a2.9 2.9 0 0 0-.726 1.262l1.988.531a.717.717 0 0 1 .078-.18.655.655 0 0 1 .117-.156zm0 0M11.246 10.121c-.02.063-.047.121-.078.18-.035.058-.074.11-.117.16l1.457 1.453c.34-.348.59-.777.726-1.262zm2.223.598a3.158 3.158 0 0 1-.79 1.37l.684.68c.239-.242.453-.523.633-.835.18-.313.316-.637.406-.965zm0 0" fill="#fff" fill-opacity=".392"/><path d="M10.39 8.145c-.964 0-1.742.777-1.742 1.742s.778 1.742 1.743 1.742c.964 0 1.742-.777 1.742-1.742s-.778-1.742-1.742-1.742zm0 .87a.872.872 0 1 1-.002 1.74.872.872 0 0 1 .003-1.74zm0 0" fill="url(#h)"/><path d="M10.39 5.746a4.133 4.133 0 0 0-4.14 4.14c0 .024 0 .052.004.079a4.123 4.123 0 0 1 4.137-4.05 4.128 4.128 0 0 1 4.136 4.05v-.078a4.132 4.132 0 0 0-4.136-4.14zm-.855 4.305a.778.778 0 0 0-.012.246c0-.027.004-.055.012-.082.074.406.43.707.856.707.425 0 .777-.3.855-.707l.012.082c0-.027.004-.05.004-.082 0-.055-.008-.11-.016-.164a.872.872 0 0 1-1.71 0zm0 0" fill="#fdfdfd" fill-opacity=".588"/><path d="M10.39 14.02a4.13 4.13 0 0 1-4.14-4.137c0-.028 0-.055.004-.078a4.126 4.126 0 0 0 4.137 4.05c2.261 0 4.09-1.8 4.136-4.05v.078a4.129 4.129 0 0 1-4.136 4.137zm-.855-4.137a.778.778 0 0 1-.015-.164c0-.031 0-.055.003-.082 0 .027.004.054.012.082a.865.865 0 0 1 .856-.707c.425 0 .777.3.855.707l.012-.082c0 .027.004.05.004.082 0 .054-.008.11-.016.164a.872.872 0 0 0-1.71 0zm0 0" fill-opacity=".235"/><path d="M10.39 5.746a4.133 4.133 0 0 0-4.14 4.14 4.13 4.13 0 0 0 4.14 4.137 4.129 4.129 0 0 0 4.137-4.136 4.132 4.132 0 0 0-4.136-4.14zm0 3.27a.872.872 0 1 1-.002 1.74.872.872 0 0 1 .003-1.74zm0 0" fill="none" stroke-width=".09375" stroke-linecap="round" stroke="#333"/><path d="M10.39 8.145c-.964 0-1.742.777-1.742 1.742s.778 1.742 1.743 1.742c.964 0 1.742-.777 1.742-1.742s-.778-1.742-1.742-1.742zm0 .87a.872.872 0 1 1-.002 1.74.872.872 0 0 1 .003-1.74zm0 0" fill="none" stroke-width=".09375" stroke-linecap="round" stroke="#333"/><path d="M6.313 1.45l.035 4.292.234.235.219-.223.222.223.227-.23.227.23.226-.23.23.23.227-.23.227.23.226-.23.227.23.23-.23.227.23.234-.235V1.45zm0 0" fill-opacity=".235"/><path d="M202.73-168.63l1 130.113 7.5 7.374 7-6.999 7.123 7 7.25-7.25 7.25 7.25 7.373-7.25 7.25 7.25 7.249-7.25 7.25 7.25 7.249-7.25 7.374 7.25 7.25-7.25 7.249 7.25 7.499-7.375v-130.112zm0 0" transform="matrix(.03125 0 0 .03125 0 6.72)" fill="url(#i)" stroke-width="3" stroke-linecap="round" stroke-linejoin="round" stroke="#212121"/><path d="M6.254 10.07c0 .063-.004.125-.004.188 0 1.672.984 3.105 2.402 3.758h1.5a4.126 4.126 0 0 1-3.898-3.946zm8.27 0a4.126 4.126 0 0 1-3.899 3.946h1.5a4.122 4.122 0 0 0 2.402-3.758c0-.063 0-.125-.004-.188zm0 0" fill-opacity=".235"/></svg>
